X: 123
T:Missa Missus est Gabriel Angelus / Credo
N: Derived from Jos1002c-Missa_Missus_est_Gabriel_Angelus-Credo.krn
C: Josquin des Prez
%%abc-version 2.0
%%abcx-abcm2ps-target-version 5.9.1 (29 Sep 2008)
%%abc-creator hum2abc beta
%%abcx-conversion-date 2019/02/12 16:15:44
%%abc-edited-by Jesse Rodin
%%abc-edited-by Will Watson 07/07/2011
%%abcx-initial-encoding-date 2011/07/07/
%%humdrum-veritas 642122958
%%humdrum-veritas-data 3662069484
%%linebreak <none>
%%barnumbers 0
L: 1/4
M: 2/1
Q: 1/2=120
%%staves [1 2 3 4]
V: 1 clef=treble
V: 2 clef=treble-8
V: 3 clef=treble-8
V: 4 clef=bass
K: F
[V:1] G8 | 
[V:2] d8 | 
[V:3] G8 | 
[V:4] G,,8 | 
[V:1] F6G2 | 
[V:2] d8 | 
[V:3] A6B2 | 
[V:4] D,8 | 
[V:1] A4B4 | 
[V:2] e4f4 | 
[V:3] c4d4 | 
[V:4] C,4B,,4 | 
[V:1] A2G4^F2 | 
[V:2] e4d4 | 
[V:3] c3BA4 | 
[V:4] C,4D,4 | 
[V:1] G8 | 
[V:2] d8 | 
[V:3] G2B2B2B2 | 
[V:4] G,,2G,2G,2G,2 | 
[V:1] z8 | 
[V:2] z8 | 
[V:3] A2A2B2c2 | 
[V:4] F,2D,2G,2E,2 | 
[V:1] z8 | 
[V:2] z8 | 
[V:3] d6d2 | 
[V:4] D,2G,2F,2D,2 | 
[V:1] z8 | 
[V:2] z8 | 
[V:3] c2A2B2c2 | 
[V:4] E,2F,2G,2E,2 | 
[V:1] z8 | 
[V:2] z8 | 
[V:3] d2B2A2d2 | 
[V:4] D,2G,2F,2D,2 | 
[V:1] z8 | 
[V:2] z8 | 
[V:3] c2A2B2A2- | 
[V:4] E,2C,2D,3C, | 
[V:1] z8 | 
[V:2] z8 | 
[V:3] A2G4^F2 | 
[V:4] B,,2C,2A,,4 | 
[V:1] B6B2 | 
[V:2] d6d2 | 
[V:3] G2B4G2 | 
[V:4] G,,2G,4G,2 | 
[V:1] A2F2G2G2 | 
[V:2] d2d2B2c2 | 
[V:3] A2B2G2G2 | 
[V:4] D,2D,2E,2E,2 | 
[V:1] F4z2F2 | 
[V:2] d4d4 | 
[V:3] A4A4 | 
[V:4] D,4D,4 | 
[V:1] G4A4 | 
[V:2] d4f4 | 
[V:3] B4c4 | 
[V:4] G,4F,4 | 
[V:1] B4z2B2 | 
[V:2] f4d4- | 
[V:3] d4B4- | 
[V:4] B,,6B,,2 | 
[V:1] B2B2A2F2 | 
[V:2] d2d2f2f2 | 
[V:3] B2B2c2d2 | 
[V:4] B,,2B,,2F,2D,2 | 
[V:1] G2A2B2A2- | 
[V:2] d2f2f2f2- | 
[V:3] B2c2d2c2 | 
[V:4] G,2F,2B,,2F,2- | 
[V:1] AGG4^F2 | 
[V:2] fec2d4 | 
[V:3] B2G2A4 | 
[V:4] F,G,E,2D,4 | 
[V:1] G8 | 
[V:2] d4z2g2 | 
[V:3] G8 | 
[V:4] G,,8 | 
[V:1] z2d2d2c2 | 
[V:2] g2f2d2f2- | 
[V:3] z8 | 
[V:4] z8 | 
[V:1] A2d4^c2 | 
[V:2] f2ede4 | 
[V:3] z8 | 
[V:4] z8 | 
[V:1] d4z2d2 | 
[V:2] d2g2f2d2 | 
[V:3] z8 | 
[V:4] z8 | 
[V:1] c2A2B2B2 | 
[V:2] e2f2d4 | 
[V:3] z8 | 
[V:4] z4B,,4 | 
[V:1] A2G3^F/E/F2 | 
[V:2] c3BA4 | 
[V:3] z8 | 
[V:4] C,2C,2D,4 | 
[V:1] G4z4 | 
[V:2] G8 | 
[V:3] z2B2c2c2 | 
[V:4] _E,2E,2C,2E,2 | 
[V:1] z2F2G2G2 | 
[V:2] z2A2d2d2 | 
[V:3] d2d2B2B2 | 
[V:4] D,2D,2G,,2G,2 | 
[V:1] A2A2B2A2- | 
[V:2] f2f2d2d2 | 
[V:3] c2d2G2A2 | 
[V:4] F,2D,2G,2F,2 | 
[V:1] AGG4^F2 | 
[V:2] _e4d4 | 
[V:3] B2c2A4 | 
[V:4] _E,2C,2D,4 | 
[V:1] G4z4 | 
[V:2] d8 | 
[V:3] G4z4 | 
[V:4] G,,4z2B,,2 | 
[V:1] z8 | 
[V:2] z8 | 
[V:3] z2F2G2A2 | 
[V:4] C,2D,2E,2C,2 | 
[V:1] z8 | 
[V:2] z8 | 
[V:3] B2G2A2D2 | 
[V:4] D,2G,,2D,4- | 
[V:1] z8 | 
[V:2] z8 | 
[V:3] F2G2A2B2 | 
[V:4] D,2E,2F,2D,2 | 
[V:1] z8 | 
[V:2] z8 | 
[V:3] G2A3GF2 | 
[V:4] E,2F,3E,D,2- | 
[V:1] z8 | 
[V:2] z8 | 
[V:3] E4D4 | 
[V:4] D,2^C,2D,4- | 
[V:1] z8 | 
[V:2] z8 | 
[V:3] z2D2E2F2 | 
[V:4] D,4z2D,2 | 
[V:1] z8 | 
[V:2] z8 | 
[V:3] G2A2B2c2- | 
[V:4] E,2F,2D,2E,2 | 
[V:1] z8 | 
[V:2] z8 | 
[V:3] cBAGB2A2- | 
[V:4] C,4D,3C, | 
[V:1] z8 | 
[V:2] z4c3c | 
[V:3] AGG4^F2 | 
[V:4] B,,2A,,G,,A,,4 | 
[V:1] G3GF2G2 | 
[V:2] B2c2d2_e2 | 
[V:3] G4z4 | 
[V:4] G,,4z4 | 
[V:1] A2B2A4 | 
[V:2] d4z4 | 
[V:3] z4A3A | 
[V:4] D,3D,C,2D,2 | 
[V:1] z8 | 
[V:2] z8 | 
[V:3] G2A2B2c2- | 
[V:4] E,2F,2D,2C,D, | 
[V:1] z4z2A2 | 
[V:2] z8 | 
[V:3] c2B2A4 | 
[V:4] E,F,G,4^F,2 | 
[V:1] B3AG2F2 | 
[V:2] z2d2_e3d | 
[V:3] G4z4 | 
[V:4] G,4z4 | 
[V:1] EDG4^F2 | 
[V:2] c2B2A4 | 
[V:3] z4d4 | 
[V:4] z4D,4 | 
[V:1] G4z4 | 
[V:2] G4z4 | 
[V:3] c3BA2G2- | 
[V:4] _E,3D,C,2B,,2 | 
[V:1] z2c2B2G2 | 
[V:2] z4z2g2 | 
[V:3] G2^F2G4 | 
[V:4] A,,4G,,4 | 
[V:1] A2d4c2 | 
[V:2] f2d2_e2_e2 | 
[V:3] z4z2c2 | 
[V:4] z8 | 
[V:1] d4z4 | 
[V:2] d4z4 | 
[V:3] B2G2A2d2- | 
[V:4] z2G,2F,2D,2 | 
[V:1] z8 | 
[V:2] z8 | 
[V:3] d2c2d4 | 
[V:4] _E,2E,2D,4 | 
[V:1] A8 | 
[V:2] f8 | 
[V:3] c8 | 
[V:4] F,8 | 
[V:1] A4A4 | 
[V:2] f4f4 | 
[V:3] c4c4 | 
[V:4] F,4F,4 | 
[V:1] B8 | 
[V:2] f8 | 
[V:3] d8 | 
[V:4] B,,8 | 
[V:1] A4G4 | 
[V:2] f4e4 | 
[V:3] c4B4 | 
[V:4] F,4G,4 | 
[V:1] F8- | 
[V:2] d8 | 
[V:3] A8 | 
[V:4] D,8 | 
[V:1] F8 | 
[V:2] z8 | 
[V:3] z4d4 | 
[V:4] z4D,4 | 
[V:1] z8 | 
[V:2] z8 | 
[V:3] c6B2 | 
[V:4] _E,6D,2 | 
[V:1] z4A4 | 
[V:2] z4c4 | 
[V:3] A2G4^F2 | 
[V:4] C,2B,,2A,,4 | 
[V:1] B6A2 | 
[V:2] B4B4 | 
[V:3] G8 | 
[V:4] G,,8 | 
[V:1] G2F2E4 | 
[V:2] c4G3A | 
[V:3] E6F2 | 
[V:4] C,8 | 
[V:1] D8 ||  
[V:2] B8 ||  
[V:3] G8 ||  
[V:4] G,,8 ||  
[V:1] [M:2/1]F4F2F2 | 
[V:2] [M:2/1]d4d2d2 | 
[V:3] [M:2/1]A4A2A2 | 
[V:4] [M:2/1]D,4D,2D,2 | 
[V:1] G2G2A2B2- | 
[V:2] d2e2f2f2 | 
[V:3] B2B2c2d2- | 
[V:4] G,2G,2F,2B,,2 | 
[V:1] BAA4G2 | 
[V:2] f4e4 | 
[V:3] dcc4B2 | 
[V:4] F,4G,4 | 
[V:1] A4z2F2 | 
[V:2] f8 | 
[V:3] c4z2A2 | 
[V:4] F,8 | 
[V:1] G2A2B2AG | 
[V:2] z8 | 
[V:3] B2c2G3A | 
[V:4] z8 | 
[V:1] F2B2A2G2- | 
[V:2] d4_e4 | 
[V:3] BcdBc3B | 
[V:4] z8 | 
[V:1] G2^F2G4 | 
[V:2] d4B4 | 
[V:3] A4G4 | 
[V:4] D,4_E,4 | 
[V:1] A4B4 | 
[V:2] d6B2 | 
[V:3] z8 | 
[V:4] D,4B,,4 | 
[V:1] A4F4 | 
[V:2] c4d4 | 
[V:3] A4B4 | 
[V:4] F,4D,3E, | 
[V:1] A3G/A/B2A2- | 
[V:2] c2d3ef2 | 
[V:3] A2F2G2A2 | 
[V:4] F,2D,2G,2F,2 | 
[V:1] A2G4^F2 | 
[V:2] d2e2d4 | 
[V:3] B2G2A4 | 
[V:4] G,4D,4 | 
[V:1] G8- | 
[V:2] z2d2d2d2 | 
[V:3] G8 | 
[V:4] G,,4z2G,2 | 
[V:1] G8 | 
[V:2] B2G2z2G2 | 
[V:3] z8 | 
[V:4] G,2G,2E,2C,2 | 
[V:1] z8 | 
[V:2] A2c2B2A2 | 
[V:3] z8 | 
[V:4] z2C,2D,2F,2 | 
[V:1] z8 | 
[V:2] c2B2A2c2- | 
[V:3] z8 | 
[V:4] E,2D,2F,4 | 
[V:1] z8 | 
[V:2] c2B2A2d2- | 
[V:3] z8 | 
[V:4] E,2D,2F,4 | 
[V:1] z8 | 
[V:2] d2^c2d4- | 
[V:3] z2G2B3c | 
[V:4] E,4D,2G,,2 | 
[V:1] z8 | 
[V:2] d4z4 | 
[V:3] d2D2F3G | 
[V:4] B,,3C,D,2E,2 | 
[V:1] z8 | 
[V:2] z8 | 
[V:3] A2B2c2d2- | 
[V:4] F,3G,A,2B,2- | 
[V:1] z4A4 | 
[V:2] z4c4 | 
[V:3] dcB2A4 | 
[V:4] B,A,G,4^F,2 | 
[V:1] B3AG2F2 | 
[V:2] B2B2c2d2 | 
[V:3] G4z4 | 
[V:4] G,4z4 | 
[V:1] G2E2D4 | 
[V:2] B2c2d4 | 
[V:3] z2A2B3A | 
[V:4] z4z2D,2 | 
[V:1] z8 | 
[V:2] z8 | 
[V:3] G2F2EDG2- | 
[V:4] _E,3D,C,2B,,2 | 
[V:1] z2A2B3A | 
[V:2] z4d4 | 
[V:3] G2^F2G4 | 
[V:4] C,2A,,2G,,4 | 
[V:1] G2F2EDG2- | 
[V:2] _e3dc2B2 | 
[V:3] z8 | 
[V:4] z8 | 
[V:1] G2^F2G2B2 | 
[V:2] c2A2G2d2 | 
[V:3] z4B4 | 
[V:4] z4z2G,2 | 
[V:1] A2c2B2A2- | 
[V:2] f2e2g2f2 | 
[V:3] c2c2d3c | 
[V:4] F,2A,2G,2D,2 | 
[V:1] AGG4^F2 | 
[V:2] e2c2d4 | 
[V:3] B2AGA4 | 
[V:4] E,4D,4 | 
[V:1] G4z2G2 | 
[V:2] z2d2e2g2 | 
[V:3] G8 | 
[V:4] G,,8 | 
[V:1] A2c2B2A2 | 
[V:2] f2e2d2f2 | 
[V:3] z8 | 
[V:4] z8 | 
[V:1] G2F2E4 | 
[V:2] e2d4^c2 | 
[V:3] z4z2A2 | 
[V:4] z8 | 
[V:1] D4z4 | 
[V:2] d4z4 | 
[V:3] B2d2c2B2 | 
[V:4] z2D,2E,2G,2 | 
[V:1] z8 | 
[V:2] z8 | 
[V:3] A2c2B2A2 | 
[V:4] F,2E,2D,2F,2 | 
[V:1] z8 | 
[V:2] z8 | 
[V:3] G2B2A2G2 | 
[V:4] E,2D,2C,2E,2 | 
[V:1] z8 | 
[V:2] z8 | 
[V:3] F2A3GG2- | 
[V:4] D,4C,2B,,2 | 
[V:1] z4z2G2 | 
[V:2] z2c2B3c | 
[V:3] G2^F2G4 | 
[V:4] A,,4G,,4 | 
[V:1] F3GA2B2 | 
[V:2] d2e2f2d2 | 
[V:3] z8 | 
[V:4] z8 | 
[V:1] c2A2G3A | 
[V:2] c2d2e4 | 
[V:3] z8 | 
[V:4] z4C,4 | 
[V:1] B4A4 | 
[V:2] d4z4 | 
[V:3] z2G2F3G | 
[V:4] B,,3C,D,2E,2 | 
[V:1] z8 | 
[V:2] z8 | 
[V:3] A2B2c2A2 | 
[V:4] F,2D,2C,2D,2 | 
[V:1] z8 | 
[V:2] z4z2g2 | 
[V:3] G2A2B2c2 | 
[V:4] E,2F,2G,2E,2 | 
[V:1] z2d2c2A2 | 
[V:2] f2d2e2f2 | 
[V:3] d2B2A4 | 
[V:4] D,4z4 | 
[V:1] B2c3BB2- | 
[V:2] d2_e3dB2 | 
[V:3] z8 | 
[V:4] z8 | 
[V:1] B2A2B4 | 
[V:2] c4B4 | 
[V:3] F6G2 | 
[V:4] z4B,,4 | 
[V:1] z8 | 
[V:2] z8 | 
[V:3] A2B2G2A2 | 
[V:4] C,2D,2_E,2C,2 | 
[V:1] z8 | 
[V:2] z8 | 
[V:3] B2c4B2- | 
[V:4] D,2_E,3D,B,,2 | 
[V:1] z8 | 
[V:2] z8 | 
[V:3] B2A2B4 | 
[V:4] C,4B,,4 | 
[V:1] F6F2 | 
[V:2] d6d2 | 
[V:3] z2A4F2 | 
[V:4] D,6D,2 | 
[V:1] G2G2F3G | 
[V:2] e2e2d2f2- | 
[V:3] c2c2A4 | 
[V:4] C,2C,2D,4 | 
[V:1] ABc4B2 | 
[V:2] f2e2d2cB | 
[V:3] F4G2G2 | 
[V:4] z8 | 
[V:1] B2A2B2F2 | 
[V:2] c4B2d2 | 
[V:3] F8 | 
[V:4] z4B,,4 | 
[V:1] F2G2A2c2 | 
[V:2] d2e2f2f2 | 
[V:3] z2c2c2A2 | 
[V:4] D,2C,2F,2F,2 | 
[V:1] B2AGB2A2- | 
[V:2] d6f2- | 
[V:3] B2c2d4 | 
[V:4] G,6D,2 | 
[V:1] A2G4^F2 | 
[V:2] f2e2d4 | 
[V:3] c2B2A4 | 
[V:4] F,2G,2D,4 | 
[V:1] G4z2d2 | 
[V:2] d2g2f2d2 | 
[V:3] G4z4 | 
[V:4] G,,4z4 | 
[V:1] c2B2c2c2 | 
[V:2] e2d2c3d | 
[V:3] z8 | 
[V:4] z8 | 
[V:1] G2B2A4 | 
[V:2] efg4^f2 | 
[V:3] z4z2d2 | 
[V:4] z4D,4 | 
[V:1] G4z4 | 
[V:2] g4z4 | 
[V:3] d2B2c2c2 | 
[V:4] G,2G,2F,2E,2- | 
[V:1] z8 | 
[V:2] z8 | 
[V:3] G2B2A2A2 | 
[V:4] E,D,G,2G,2^F,2 | 
[V:1] z2B2c3B | 
[V:2] z2d2_e3d | 
[V:3] G4z4 | 
[V:4] G,4z4 | 
[V:1] A2G2F2G2 | 
[V:2] c2_e2d2B2 | 
[V:3] z8 | 
[V:4] z8 | 
[V:1] A2B4AG | 
[V:2] c2d2GABc | 
[V:3] z8 | 
[V:4] z8 | 
[V:1] F2B4A2 | 
[V:2] def4f2 | 
[V:3] z2d4c2 | 
[V:4] z2B,,4F,2 | 
[V:1] G4F4- | 
[V:2] d4d4- | 
[V:3] B4A4 | 
[V:4] G,4D,4 | 
[V:1] F4z4 | 
[V:2] d4z4 | 
[V:3] z2A2B2G2 | 
[V:4] z2D,2D,2E,2 | 
[V:1] z2A2B2G2 | 
[V:2] z2d2d2e2 | 
[V:3] A2A2G4 | 
[V:4] F,2F,2G,4 | 
[V:1] A2A2G2B2 | 
[V:2] f2f2g2d2 | 
[V:3] z8 | 
[V:4] z4z2G,2 | 
[V:1] A2FGABc2- | 
[V:2] f2f3ecd | 
[V:3] z2d2c2A2 | 
[V:4] F,2D,2F,3E, | 
[V:1] cBG3AB2- | 
[V:2] _e2dcB2f2- | 
[V:3] c3BG2d2- | 
[V:4] C,D,_E,4D,C, | 
[V:1] B2AG^F4 | 
[V:2] f2e2d4 | 
[V:3] dcB2A4 | 
[V:4] B,,2C,2D,4 | 
[V:1] G8 |]  
[V:2] d8 |]  
[V:3] G8 |]  
[V:4] G,,8 |]  



